public/medias/icons/Figma.svg

<?xml version="1.0" encoding="utf-8"?><svg width="800px" height="800px" viewBox="0 0 32 32" fill="none" xmlns="http://www.w3.org/2000/svg"><path fill-rule="evenodd" clip-rule="evenodd" d="M16 16C16 13.7909 17.7909 12 20 12C22.2091 12 24 13.7909 24 16C24 18.2091 22.2091 20 20 20C17.7909 20 16 18.2091 16 16Z" fill="#1ABCFE"/><path fill-rule="evenodd" clip-rule="evenodd" d="M8 24C8 21.7909 9.79086 20 12 20H16V24C16 26.2091 14.2091 28 12 28C9.79086 28 8 26.2091 8 24Z" fill="#0ACF83"/><path fill-rule="evenodd" clip-rule="evenodd" d="M16 4V12H20C22.2091 12 24 10.2091 24 8C24 5.79086 22.2091 4 20 4H16Z" fill="#FF7262"/><path fill-rule="evenodd" clip-rule="evenodd" d="M8 8C8 10.2091 9.79086 12 12 12H16V4H12C9.79086 4 8 5.79086 8 8Z" fill="#F24E1E"/><path fill-rule="evenodd" clip-rule="evenodd" d="M8 16C8 18.2091 9.79086 20 12 20H16V12H12C9.79086 12 8 13.7909 8 16Z" fill="#A259FF"/></svg>

<svg xmlns="http://www.w3.org/2000/svg" width="800" height="800" fill="none" viewBox="0 0 32 32">
  <path fill="#1ABCFE" fill-rule="evenodd" d="M16 16a4 4 0 1 1 8 0 4 4 0 0 1-8 0Z" clip-rule="evenodd"/>
  <path fill="#0ACF83" fill-rule="evenodd" d="M8 24a4 4 0 0 1 4-4h4v4a4 4 0 0 1-8 0Z" clip-rule="evenodd"/>
  <path fill="#FF7262" fill-rule="evenodd" d="M16 4v8h4a4 4 0 0 0 0-8h-4Z" clip-rule="evenodd"/>
  <path fill="#F24E1E" fill-rule="evenodd" d="M8 8a4 4 0 0 0 4 4h4V4h-4a4 4 0 0 0-4 4Z" clip-rule="evenodd"/>
  <path fill="#A259FF" fill-rule="evenodd" d="M8 16a4 4 0 0 0 4 4h4v-8h-4a4 4 0 0 0-4 4Z" clip-rule="evenodd"/>
</svg>
